X:6000
T:Frieze Britches
R:Jig
C:Trad.
O:Ireland
Z:Paul Hardy's Possible Tunebook 2015 (see www.paulhardy.net). Creative Commons cc by-nc-sa licenced.
M:6/8
L:1/8
Q:3/8=80
K:D
"D"FED "C"EFG|"D"AdB "Am"=cAG|"D"A2A "G"BAG|"D"FAF "C"GFE|"D"FED "C"EFG|"D"AdB "Am"=cAG|"D"FAF "C"GEA|"D"DED D3:|
|:"D"d2e fed|"Am"e2d "A"cAG|"D"A2A "G"BAG|"D"FAF "C"GFE|"D"d2e fed|"Am"e2d "A"cAG|"D"FAF "C"GEA|"D"DED D3:|
|:"D"DED "Am"=c3|"D"AdB "Am"=cAG|"A"AB^c "D"d3|"D"ded "A"cAG|"D"DED "Am"=c3|"D"AdB "Am"=cAG|"D"FAF "C"GEA|"D"DED D3:|
|:"D"d2e fdd|add fdd|"A"c2d eAA|"D"fAA "A"eAA|"D"d2e fdd|add fdd|faf "C"gec|1 "A"edc "D"d3:|2 "A"edc "G"d2 g||
"D"fed "A"edc|"D"ded "A"cAG|"D"A^GA "G"BA=G|"D"FAF "C"GFE|"D"fed "A"edc|"D"ded "A"cAG|"D"FAF "C"GEA|"D"DED "G"D2g|
"D"fed "A"edc|"D"ded "A"cAG|"D"A^GA "G"BA=G|"D"FAF "C"GFE|"D"fed "C"efg|"D"afd "A"cAG|"D"FAF "C"GEA|"D"DED "D"D3|]

